Numix-Light/16/status/indicator-keyboard-Zh-1.svg

<?xml version="1.0" encoding="UTF-8" standalone="no"?>
<svg
   xmlns:dc="http://purl.org/dc/elements/1.1/"
   xmlns:cc="http://creativecommons.org/ns#"
   xmlns:rdf="http://www.w3.org/1999/02/22-rdf-syntax-ns#"
   xmlns:svg="http://www.w3.org/2000/svg"
   xmlns="http://www.w3.org/2000/svg"
   xmlns:sodipodi="http://sodipodi.sourceforge.net/DTD/sodipodi-0.dtd"
   xmlns:inkscape="http://www.inkscape.org/namespaces/inkscape"
   viewBox="0 0 16 16"
   id="svg2"
   version="1.1"
   inkscape:version="0.91 r13725"
   sodipodi:docname="indicator-keyboard-Zh-1.svg">
  <metadata
     id="metadata14">
    <rdf:RDF>
      <cc:Work
         rdf:about="">
        <dc:format>image/svg+xml</dc:format>
        <dc:type
           rdf:resource="http://purl.org/dc/dcmitype/StillImage" />
      </cc:Work>
    </rdf:RDF>
  </metadata>
  <defs
     id="defs12" />
  <sodipodi:namedview
     pagecolor="#ffffff"
     bordercolor="#666666"
     borderopacity="1"
     objecttolerance="10"
     gridtolerance="10"
     guidetolerance="10"
     inkscape:pageopacity="0"
     inkscape:pageshadow="2"
     inkscape:window-width="459"
     inkscape:window-height="369"
     id="namedview10"
     showgrid="false"
     inkscape:zoom="14.75"
     inkscape:cx="8"
     inkscape:cy="8"
     inkscape:window-x="65"
     inkscape:window-y="24"
     inkscape:window-maximized="0"
     inkscape:current-layer="svg2" />
  <path
     style="fill:#353535;fill-opacity:1"
     d="M 1.5996094 0 C 0.71320937 2.9605947e-16 0 0.71320937 0 1.5996094 L 0 14.400391 C 2.9605947e-16 15.286791 0.71320937 16 1.5996094 16 L 14.400391 16 C 15.286791 16 16 15.286791 16 14.400391 L 16 1.5996094 C 16 0.71320937 15.286791 0 14.400391 0 L 1.5996094 0 z M 8.1210938 4.1113281 L 8.1210938 6.578125 C 8.3130938 6.506125 8.5070781 6.4520156 8.7050781 6.4160156 C 8.9030781 6.3740156 9.1008281 6.3535156 9.2988281 6.3535156 C 9.6588281 6.3535156 9.9592186 6.4038594 10.199219 6.5058594 C 10.439219 6.6078594 10.631391 6.7552656 10.775391 6.9472656 C 10.919391 7.1332656 11.018266 7.3570938 11.072266 7.6210938 C 11.132266 7.8850937 11.162109 8.1761406 11.162109 8.4941406 L 11.162109 11.095703 L 10.578125 11.095703 L 10.578125 8.6835938 C 10.578125 8.3535938 10.553859 8.0756562 10.505859 7.8476562 C 10.463859 7.6196563 10.38925 7.4330625 10.28125 7.2890625 C 10.17925 7.1450625 10.041188 7.0424219 9.8671875 6.9824219 C 9.6931875 6.9164219 9.4729844 6.8847656 9.2089844 6.8847656 C 9.1069844 6.8847656 8.9969531 6.8921562 8.8769531 6.9101562 C 8.7629531 6.9281563 8.6547344 6.9506094 8.5527344 6.9746094 C 8.4507344 6.9926094 8.3574375 7.0131094 8.2734375 7.0371094 C 8.1954375 7.0611094 8.1450937 7.0797969 8.1210938 7.0917969 L 8.1210938 11.095703 L 7.5351562 11.095703 L 7.5351562 4.2207031 L 8.1210938 4.1113281 z M 2.2285156 4.859375 L 6.3066406 4.859375 L 6.3066406 5.4179688 C 6.1626406 5.5859687 5.9947344 5.7892969 5.8027344 6.0292969 C 5.6167344 6.2692969 5.4152188 6.5323125 5.1992188 6.8203125 C 4.9832188 7.1023125 4.7612031 7.4064687 4.5332031 7.7304688 C 4.3112031 8.0484688 4.0891875 8.3711719 3.8671875 8.7011719 C 3.6511875 9.0251719 3.4440937 9.3460625 3.2460938 9.6640625 C 3.0540937 9.9820627 2.8806094 10.282453 2.7246094 10.564453 L 6.3964844 10.564453 L 6.3964844 11.095703 L 2.0585938 11.095703 L 2.0585938 10.636719 C 2.1905937 10.378719 2.3473438 10.097016 2.5273438 9.7910156 C 2.7133438 9.4790156 2.9110937 9.1618906 3.1210938 8.8378906 C 3.3310937 8.5078906 3.5493438 8.1776562 3.7773438 7.8476562 C 4.0053438 7.5176562 4.231125 7.2023438 4.453125 6.9023438 C 4.675125 6.5963438 4.8840313 6.3146406 5.0820312 6.0566406 C 5.2860312 5.7986406 5.472625 5.576625 5.640625 5.390625 L 2.2285156 5.390625 L 2.2285156 4.859375 z M 13.671875 8.8417969 L 13.941406 8.8417969 L 13.941406 12.896484 L 13.560547 12.896484 L 13.560547 9.421875 C 13.517647 9.468675 13.462778 9.5157063 13.392578 9.5664062 C 13.326278 9.6171063 13.249863 9.66805 13.164062 9.71875 C 13.078263 9.76555 12.988131 9.812575 12.894531 9.859375 C 12.800931 9.902275 12.706881 9.9375437 12.613281 9.9648438 L 12.501953 9.671875 C 12.735953 9.5899751 12.945606 9.4880813 13.128906 9.3632812 C 13.312206 9.2345813 13.492475 9.0601969 13.671875 8.8417969 z "
     id="path4" />
</svg>

<svg xmlns="http://www.w3.org/2000/svg" viewBox="0 0 16 16">
 <path d="m 1.6 0 c -0.886 0 -1.6 0.713 -1.6 1.6 l 0 12.801 c 0 0.886 0.713 1.6 1.6 1.6 l 12.801 0 c 0.886 0 1.6 -0.713 1.6 -1.6 l 0 -12.801 c 0 -0.886 -0.713 -1.6 -1.6 -1.6 l -12.801 0 z m 6.521 4.111 l 0 2.467 c 0.192 -0.072 0.386 -0.126 0.584 -0.162 c 0.198 -0.042 0.396 -0.063 0.594 -0.063 c 0.36 0 0.66 0.05 0.9 0.152 c 0.24 0.102 0.432 0.249 0.576 0.441 c 0.144 0.186 0.243 0.41 0.297 0.674 c 0.06 0.264 0.09 0.555 0.09 0.873 l 0 2.602 l -0.584 0 l 0 -2.412 c 0 -0.33 -0.024 -0.608 -0.072 -0.836 c -0.042 -0.228 -0.117 -0.415 -0.225 -0.559 c -0.102 -0.144 -0.24 -0.247 -0.414 -0.307 c -0.174 -0.066 -0.394 -0.098 -0.658 -0.098 c -0.102 0 -0.212 0.007 -0.332 0.025 c -0.114 0.018 -0.222 0.04 -0.324 0.064 c -0.102 0.018 -0.195 0.038 -0.279 0.063 c -0.078 0.024 -0.128 0.043 -0.152 0.055 l 0 4 l -0.586 0 l 0 -6.875 l 0.586 -0.109 z m -5.893 0.748 l 4.078 0 l 0 0.559 c -0.144 0.168 -0.312 0.371 -0.504 0.611 c -0.186 0.24 -0.388 0.503 -0.604 0.791 c -0.216 0.282 -0.438 0.586 -0.666 0.91 c -0.222 0.318 -0.444 0.641 -0.666 0.971 c -0.216 0.324 -0.423 0.645 -0.621 0.963 c -0.192 0.318 -0.365 0.618 -0.521 0.9 l 3.672 0 l 0 0.531 l -4.338 0 l 0 -0.459 c 0.132 -0.258 0.289 -0.54 0.469 -0.846 c 0.186 -0.312 0.384 -0.629 0.594 -0.953 c 0.21 -0.33 0.428 -0.66 0.656 -0.99 c 0.228 -0.33 0.454 -0.645 0.676 -0.945 c 0.222 -0.306 0.431 -0.588 0.629 -0.846 c 0.204 -0.258 0.391 -0.48 0.559 -0.666 l -3.412 0 l 0 -0.531 z m 11.443 3.982 l 0.27 0 l 0 4.055 l -0.381 0 l 0 -3.475 c -0.043 0.047 -0.098 0.094 -0.168 0.145 c -0.066 0.051 -0.143 0.102 -0.229 0.152 c -0.086 0.047 -0.176 0.094 -0.27 0.141 c -0.094 0.043 -0.188 0.078 -0.281 0.105 l -0.111 -0.293 c 0.234 -0.082 0.444 -0.184 0.627 -0.309 c 0.183 -0.129 0.364 -0.303 0.543 -0.521 z" style="fill:#353535;fill-opacity:1"/>
</svg>
